!!!OTL: Dutchman's Song
!!!ONM: 114.
**kern
*clefG2
*k[b-]
*F:
*M4/4
*MM120
{4a
=1
4f
4a
4cc
4ff
=2
4aa
4ff
4r}
{4ff
=3
4gg
8ff
8ff
4ee
4ff
=4
2dd
4r}
{4cc
=5
4ff
4ff
4ee
4ee
=6
2ff
2cc}
=7
{4cc
4cc
4cc
4dd
=8
2g
4r}
{4a
=9
4f
4a
4cc
4ee
=10
4ff
4ee}
{4.ff
8ff
=11
4gg
4ff
4ee
4ff
=12
2dd
4r}
{4cc
=13
4ff
4ff
4dd
8cc
8cc
=14
4ff
4ff
4dd}
{4a
=15
4cc
4cc
4a
4g
=16
2f
4r}
==
*-
!!!CNT: Folksongs of Maritime Canada
!!!MRD: 1928///-1932///
!!!OCL: Helen Creighton
!!!YOR: Songs and Ballads from Nova Scotia
!!!PPR: J.M. Dent & Sons, Limited
!!!PPP: Toronto, Canada
!!!PDT: 1932///
!!!reprint: Dover Publications, 1992: ISBN 0-486-21703-5
!!!ENC1: Craig Stuart Sapp (music and bibliographic data)                       
!!!ENC2: Marcus Pearce (phrase markings and key designations)                   
!!!ENC3: Darrell Conklin (phrase markings and key designations)   
!!!END: 2002/04/10/
!!!EEV: 2004/06/05
!!!MPN: Mr. Charlie Hartlan
!!!PPG: 247
!!!EFL: 115/152
!!!ARE: Canada; Nova Scotia
!!!verses: 2
!!!VTS: 4023132227
